.local/share/icons/Gruvbox-Plus-Dark/status/32/changes-allow.svg

<svg xmlns="http://www.w3.org/2000/svg" width="32" height="32" version="1">
 <path style="opacity:0.2" d="M 16,3 C 11.907463,3 8.5584191,6.0443272 8.0683594,10 H 11.099609 C 11.560604,7.7126387 13.572832,6 16,6 c 2.77,0 5,2.23 5,5 v 3 h 3 V 11 C 24,6.568 20.432,3 16,3 Z"/>
 <path d="M 16 2 C 11.907463 2 8.5584191 5.0443272 8.0683594 9 L 11.099609 9 C 11.560604 6.7126387 13.572832 5 16 5 C 18.77 5 21 7.23 21 10 L 21 13 L 24 13 L 24 10 C 24 5.568 20.432 2 16 2 z" style="fill:#ebdbb2"/>
 <rect width="17" height="22" x="-30" y="-27" rx="1.4" ry="1.4" transform="matrix(0,-1,-1,0,0,0)" style="fill:#cc241d"/>
 <path d="M 16 2 C 11.907463 2 8.5584191 5.0443272 8.0683594 9 L 8.2597656 9 C 9.1444468 5.5434256 12.260084 3 16 3 C 20.432 3 24 6.568 24 11 L 24 10 C 24 5.568 20.432 2 16 2 z" style="fill:#ebdbb2;opacity:0.2"/>
 <path fill="#ebdbb2" opacity=".1" d="m6.4004 13c-0.7756 0-1.4004 0.625-1.4004 1.4v1c0-0.775 0.6248-1.4 1.4004-1.4h19.2c0.775 0 1.4 0.625 1.4 1.4v-1c0-0.775-0.625-1.4-1.4-1.4h-19.2z"/>
 <rect width="22" height="10" x="5" y="16" rx="0" ry="0" style="fill:#fb4934"/>
 <path d="m 5,28.6 v 1 C 5,30.375 5.6248,31 6.4004,31 h 19.2 c 0.775,0 1.4,-0.625 1.4,-1.4 v -1 c 0,0.775 -0.625,1.4 -1.4,1.4 h -19.2 c -0.7752,0 -1.4,-0.625 -1.4,-1.4 z" style="opacity:0.2"/>
</svg>

<svg width="32" height="32" version="1" xmlns="http://www.w3.org/2000/svg">
  <path d="m16 3c-4.0925 0-7.4416 3.0443-7.9316 7h3.0312c0.461-2.2874 2.4732-4 4.9004-4 2.77 0 5 2.23 5 5v3h3v-3c0-4.432-3.568-8-8-8zm-11 25.6v1c0 0.775 0.62479 1.4004 1.4004 1.4004h19.199c0.775 0 1.4004-0.62539 1.4004-1.4004v-1c0 0.775-0.62539 1.4004-1.4004 1.4004h-19.199c-0.7752 0-1.4004-0.62539-1.4004-1.4004z" fill="#282828" opacity=".2"/>
  <path d="m16 2c-4.0925 0-7.4416 3.0443-7.9316 7h3.0312c0.461-2.2874 2.4732-4 4.9004-4 2.77 0 5 2.23 5 5v3h3v-3c0-4.432-3.568-8-8-8z" fill="#ebdbb2"/>
  <rect transform="matrix(0,-1,-1,0,0,0)" x="-30" y="-27" width="17" height="22" rx="1.4" ry="1.4" fill="#cc241d"/>
  <path d="m16 2c-4.0925 0-7.4416 3.0443-7.9316 7h0.19141c0.88468-3.4566 4.0003-6 7.7402-6 4.432 0 8 3.568 8 8v-1c0-4.432-3.568-8-8-8z" fill="#fbf1c7" opacity=".3"/>
  <path d="m6.4004 13c-0.7756 0-1.4004 0.625-1.4004 1.4v1c0-0.775 0.6248-1.4 1.4004-1.4h19.2c0.775 0 1.4 0.625 1.4 1.4v-1c0-0.775-0.625-1.4-1.4-1.4h-19.2z" fill="#ebdbb2" opacity=".2"/>
  <rect x="5" y="16" width="22" height="10" rx="0" ry="0" fill="#fb4934"/>
</svg>
